assets/logo-hydro-grey.svg

<svg height="45" viewBox="0 0 169 45" width="169" xmlns="http://www.w3.org/2000/svg"><g fill="#282138" fill-rule="evenodd"><path d="m123.098719 22.6508603v-3.8578677c-.000221-2.0161764-.021594-2.0406617-2.013678-2.24625-.182441-.0189705-.365763-.0302205-.548865-.0405882-2.657068-.1517647-3.83522.589853-4.168593 3.2422059-.285119 2.2698529-.299661 4.6219853-.056847 6.8973529.270576 2.5345589 2.016762 3.4451471 4.471779 2.6660294.554153-.1758088 1.131882-.3955147 1.580492-.74625.341966-.2673529.681508-.765.702661-1.1766176.080864-1.5756618.03261-3.1581618.033051-4.7380147zm6.234712 11.7769853h-5.763187c-.050898-.5439706-.096949-1.03875-.159305-1.7093382-.469102.2534558-.849627.433897-1.204814.6555882-2.045627 1.2774265-4.236678 1.7452941-6.633745 1.3398529-2.464272-.4169117-4.24439-1.7534559-5.061187-4.0685294-1.666424-4.7234559-1.792678-9.5433088.050899-14.2292647 1.775271-4.5134559 6.361406-6.1991912 11.423694-4.45875.307814.1058824.606373.2386765 1.112933.439853v-5.33382358-5.27955882c2.079118-.44272059 4.111084-.87529412 6.234712-1.3275z"/><path d="m66.2548085 1.79569853c2.0493729-.44382353 4.0487288-.87683824 6.2230339-1.34779412v13.31801469c.8906101-.4275 1.5732203-.7566176 2.2571525-1.0833088 1.9484576-.9304412 3.9544237-1.5123529 6.160017-1.275 2.7529152.2964706 4.3223898 1.7534559 4.4374067 4.5363971.1258136 3.0452205.088356 18.4632352.088356 18.4632352h-6.2704068s.0030847-10.5617647-.0019831-15.2655882c-.0017627-1.7521323-.3247796-2.0530147-2.0775762-1.9786765-.3666441.0156618-.7359322.0249265-1.0977288.079853-1.2587966.19125-2.9723729.4630147-3.4855424.7383088-.0808644.6198529.0330508 16.6014706.0330508 16.6014706l-6.2657796-.0227206z"/><path d="m162.0008 19.9023529c-.035254-.3628676-.128237-.7230882-.225847-1.0760294-.485628-1.7523529-1.45578-2.4496323-3.410848-2.4672794-2.049813-.0183088-3.14578.6496324-3.557593 2.4119118-.677763 2.8991912-.680848 5.835.001542 8.7344117.410712 1.7439706 1.466136 2.4075 3.442136 2.408603 2.050254.0011029 3.115813-.6688235 3.509779-2.4586765m6.661289-.1120588c-1.008492 4.49625-4.134221 7.1883088-8.746356 7.4655882-1.522983.0913236-3.101271.0308824-4.592305-.2693382-3.470119-.6983824-5.714272-2.8850735-6.690594-6.2777206-.94305-3.2783823-.973017-6.5995588-.057288-9.89625 1.122407-4.0427206 4.033966-6.5013971 8.202339-6.8556618 1.379763-.1171323 2.808441-.1447058 4.167712.0767647 4.542068.7396324 7.206407 3.5543383 7.914136 8.2074265.322135 2.1979412.457423 5.0428677-.197644 7.5491912"/><path d="m28.5815797 34.8812426v-20.0002941h-5.4317966v5.1152206c.4065254.0394853.8280338.0802941 1.3310677.1290441v4.5041912c-1.1285762 0-2.2291694.0955147-3.3061864-.0229412-1.4894915-.163897-2.5136271-1.2767647-2.678-2.7825-.0835085-.7636764-.0561864-1.5410294-.0568475-2.3122058-.0039661-5.183603-.0028644-10.36698534-.001983-15.55058828.000661-3.21 1.1869661-4.24455883 4.5715932-3.86272059v10.19669117c2.0251356 0 3.9244576-.0044118 5.8237797.0026471.5867627.0022058 1.1803559-.0136765 1.7589661.0648529 1.5527288.2106618 2.5515254 1.4545588 2.5565932 3.2051471.0141017 5.0364706.0055085 10.0731617.0057288 15.1096323 0 .9926471.0079322 1.9852941-.001983 2.9777206-.0218136 2.16-1.0911187 3.2086765-3.2782034 3.2256618-.3935254.0030882-.7868305.0004411-1.2927288.0004411"/><path d="m46.8806881 20.1439412v-15.51816179h-19.7738813v-4.56529412c.3699491-.0205147.7227118-.05691176 1.0756949-.05713235 6.5350339-.00330882 13.0700678-.00485294 19.605322-.00110294 2.5167119.00132353 3.6931017 1.17573529 3.6972882 3.71889706.0096949 5.84404412.0090339 11.68830884.0004406 17.53235294-.0037457 2.4383824-1.0439661 3.4506618-3.5073559 3.4526471-3.5558305.002647-7.1118813.0006617-10.739322.0006617v-4.5628676z"/><path d="m24.3810373 30.4057059v4.4225735c-.3847119.01875-.7398983.0507353-1.0953051.0509559-6.5365763.0030882-13.0733729.0057353-19.60994915.0002206-2.52618644-.0022059-3.66754237-1.1580883-3.67062712-3.7246324-.00705085-5.80875-.00683051-11.6175.00044068-17.42625.00286441-2.458897 1.02876271-3.495 3.471-3.5038235 3.2680678-.0121324 6.53679659.0220588 9.80464409-.0207353.820983-.0108088 1.107644.225 1.0596101 1.0575-.065 1.1289706-.0160847 2.2645588-.0160847 3.5234559h-9.70438983c-.02555932.4795588-.06125424.8366912-.06147458 1.1936029-.00374576 4.4117647.02181356 8.82375-.02247457 13.234853-.00925424.913897.24810169 1.1834559 1.16823729 1.1748529 6.09457629-.0566912 12.18959319-.0573529 18.28461019-.0723529.1051017-.0004412.2102034.0467647.3917627.0897794"/><path d="m139.357973 34.5598235h-1.247119-4.925678v-22.7038235h6.123221c.033491.68625.064559 1.3310294.115457 2.3766176 1.967627-1.9522058 3.884136-3.5179411 6.728051-2.432647-.095407 1.9330147-.192356 3.9006618-.295254 5.9847794-1.807-.3280147-3.521898-.3613235-5.205509.3527206-.96905.4109559-1.342084.9489706-1.323356 2.0490441.073373 4.3354412.030187 8.6730882.030187 13.0100735z"/><path d="m102.500461 11.6979265-4.4413729 13.2930882-4.4620847-13.2258088-6.1254237-.04125 7.6010339 22.7975735-3.4928136 10.2736765 6.8479153-1.5754412c3.1803727-9.7076471 10.3156097-31.5 10.3156097-31.5z"/></g></svg>

<?xml version="1.0" encoding="UTF-8"?>
<svg width="169px" height="45px" viewBox="0 0 169 45" version="1.1" xmlns="http://www.w3.org/2000/svg" xmlns:xlink="http://www.w3.org/1999/xlink">
    <!-- Generator: Sketch 52.2 (67145) - http://www.bohemiancoding.com/sketch -->
    <title>Logo</title>
    <desc>Created with Sketch.</desc>
    <g id="Designs" stroke="none" stroke-width="1" fill="none" fill-rule="evenodd">
        <g id="Home" transform="translate(-395.000000, -4184.000000)" fill="#282138">
            <g id="JOIN-THE-WBTC-COMMUNITY" transform="translate(0.000000, 3815.000000)">
                <g id="SECTION---JOIN-THE-WBTC-COMMUNITY" transform="translate(130.000000, 85.000000)">
                    <g id="Logo-Hydro-Protocol" transform="translate(240.000000, 256.000000)">
                        <g id="Logo" transform="translate(25.000000, 28.000000)">
                            <path d="M123.098719,22.6508603 L123.098719,18.7929926 C123.098498,16.7768162 123.077125,16.7523309 121.085041,16.5467426 C120.9026,16.5277721 120.719278,16.5165221 120.536176,16.5061544 C117.879108,16.3543897 116.700956,17.0960074 116.367583,19.7483603 C116.082464,22.0182132 116.067922,24.3703456 116.310736,26.6457132 C116.581312,29.1802721 118.327498,30.0908603 120.782515,29.3117426 C121.336668,29.1359338 121.914397,28.9162279 122.363007,28.5654926 C122.704973,28.2981397 123.044515,27.8004926 123.065668,27.388875 C123.146532,25.8132132 123.098278,24.2307132 123.098719,22.6508603 Z M129.333431,34.4278456 L123.570244,34.4278456 C123.519346,33.883875 123.473295,33.3890956 123.410939,32.7185074 C122.941837,32.9719632 122.561312,33.1524044 122.206125,33.3740956 C120.160498,34.6515221 117.969447,35.1193897 115.57238,34.7139485 C113.108108,34.2970368 111.32799,32.9604926 110.511193,30.6454191 C108.844769,25.9219632 108.718515,21.1021103 110.562092,16.4161544 C112.337363,11.9026985 116.923498,10.2169632 121.985786,11.9574044 C122.2936,12.0632868 122.592159,12.1960809 123.098719,12.3972574 L123.098719,7.06343382 L123.098719,1.783875 C125.177837,1.34115441 127.209803,0.908580882 129.333431,0.456375 L129.333431,34.4278456 Z" id="Fill-1"></path>
                            <path d="M66.2548085,1.79569853 C68.3041814,1.351875 70.3035373,0.918860294 72.4778424,0.447904412 L72.4778424,13.7659191 C73.3684525,13.3384191 74.0510627,13.0093015 74.7349949,12.6826103 C76.6834525,11.7521691 78.6894186,11.1702574 80.8950119,11.4076103 C83.6479271,11.7040809 85.2174017,13.1610662 85.3324186,15.9440074 C85.4582322,18.9892279 85.4207746,34.4072426 85.4207746,34.4072426 L79.1503678,34.4072426 C79.1503678,34.4072426 79.1534525,23.8454779 79.1483847,19.1416544 C79.146622,17.3895221 78.8236051,17.0886397 77.0708085,17.1629779 C76.7041644,17.1786397 76.3348763,17.1879044 75.9730797,17.2428309 C74.7142831,17.4340809 73.0007068,17.7058456 72.4875373,17.9811397 C72.4066729,18.6009926 72.5205881,34.5826103 72.5205881,34.5826103 L66.2548085,34.5598897 L66.2548085,1.79569853 Z" id="Fill-3"></path>
                            <path d="M162.0008,19.9023529 C161.965546,19.5394853 161.872563,19.1792647 161.774953,18.8263235 C161.289325,17.0739706 160.319173,16.3766912 158.364105,16.3590441 C156.314292,16.3407353 155.218325,17.0086765 154.806512,18.7709559 C154.128749,21.6701471 154.125664,24.6059559 154.808054,27.5053676 C155.218766,29.2493382 156.27419,29.9128676 158.25019,29.9139706 C160.300444,29.9150735 161.366003,29.2451471 161.759969,27.4552941 M168.421258,27.3432353 C167.412766,31.8394853 164.287037,34.5315441 159.674902,34.8088235 C158.151919,34.9001471 156.573631,34.8397059 155.082597,34.5394853 C151.612478,33.8411029 149.368325,31.6544118 148.392003,28.2617647 C147.448953,24.9833824 147.418986,21.6622059 148.334715,18.3655147 C149.457122,14.3227941 152.368681,11.8641176 156.537054,11.5098529 C157.916817,11.3927206 159.345495,11.3651471 160.704766,11.5866176 C165.246834,12.32625 167.911173,15.1409559 168.618902,19.7940441 C168.941037,21.9919853 169.076325,24.8369118 168.421258,27.3432353" id="Fill-5"></path>
                            <path d="M28.5815797,34.8812426 L28.5815797,14.8809485 L23.1497831,14.8809485 L23.1497831,19.9961691 C23.5563085,20.0356544 23.9778169,20.0764632 24.4808508,20.1252132 L24.4808508,24.6294044 C23.3522746,24.6294044 22.2516814,24.7249191 21.1746644,24.6064632 C19.6851729,24.4425662 18.6610373,23.3296985 18.4966644,21.8239632 C18.4131559,21.0602868 18.440478,20.2829338 18.4398169,19.5117574 C18.4358508,14.3281544 18.4369525,9.14477206 18.4378339,3.96116912 C18.4384949,0.751169118 19.6248,-0.283389706 23.0094271,0.0984485294 L23.0094271,10.2951397 C25.0345627,10.2951397 26.9338847,10.2907279 28.8332068,10.2977868 C29.4199695,10.2999926 30.0135627,10.2841103 30.5921729,10.3626397 C32.1449017,10.5733015 33.1436983,11.8171985 33.1487661,13.5677868 C33.1628678,18.6042574 33.1542746,23.6409485 33.1544949,28.6774191 C33.1544949,29.6700662 33.1624271,30.6627132 33.1525119,31.6551397 C33.1306983,33.8151397 32.0613932,34.8638162 29.8743085,34.8808015 C29.4807831,34.8838897 29.087478,34.8812426 28.5815797,34.8812426" id="Fill-7"></path>
                            <path d="M46.8806881,20.1439412 L46.8806881,4.62577941 L27.1068068,4.62577941 L27.1068068,0.0604852941 C27.4767559,0.0399705882 27.8295186,0.00357352941 28.1825017,0.00335294118 C34.7175356,4.41176471e-05 41.2525695,-0.0015 47.7878237,0.00225 C50.3045356,0.00357352941 51.4809254,1.17798529 51.4851119,3.72114706 C51.4948068,9.56519118 51.4941458,15.4094559 51.4855525,21.2535 C51.4818068,23.6918824 50.4415864,24.7041618 47.9781966,24.7061471 C44.4223661,24.7087941 40.8663153,24.7068088 37.2388746,24.7068088 L37.2388746,20.1439412 L46.8806881,20.1439412 Z" id="Fill-9"></path>
                            <path d="M24.3810373,30.4057059 L24.3810373,34.8282794 C23.9963254,34.8470294 23.641139,34.8790147 23.2857322,34.8792353 C16.7491559,34.8823235 10.2123593,34.8849706 3.67578305,34.8794559 C1.14959661,34.87725 0.00824067783,33.7213676 0.00515593207,31.1548235 C-0.00189491539,25.3460735 -0.00167457641,19.5373235 0.00559661003,13.7285735 C0.00846101681,11.2696765 1.03435932,10.2335735 3.47659661,10.22475 C6.74466441,10.2126176 10.0133932,10.2468088 13.2812407,10.2040147 C14.1022237,10.1932059 14.3888847,10.4290147 14.3408508,11.2615147 C14.2758508,12.3904853 14.3247661,13.5260735 14.3247661,14.7849706 L4.62037627,14.7849706 C4.59481695,15.2645294 4.55912203,15.6216618 4.55890169,15.9785735 C4.55515593,20.3903382 4.58071525,24.8023235 4.53642712,29.2134265 C4.52717288,30.1273235 4.78452881,30.3968824 5.70466441,30.3882794 C11.7992407,30.3315882 17.8942576,30.3309265 23.9892746,30.3159265 C24.0943763,30.3154853 24.199478,30.3626912 24.3810373,30.4057059" id="Fill-11"></path>
                            <path d="M139.357973,34.5598235 L138.110854,34.5598235 L133.185176,34.5598235 L133.185176,11.856 L139.308397,11.856 C139.341888,12.54225 139.372956,13.1870294 139.423854,14.2326176 C141.391481,12.2804118 143.30799,10.7146765 146.151905,11.7999706 C146.056498,13.7329853 145.959549,15.7006324 145.856651,17.78475 C144.049651,17.4567353 142.334753,17.4234265 140.651142,18.1374706 C139.682092,18.5484265 139.309058,19.0864412 139.327786,20.1865147 C139.401159,24.5219559 139.357973,28.8596029 139.357973,33.1965882 L139.357973,34.5598235 Z" id="Fill-13"></path>
                            <path d="M102.500461,11.6979265 L98.0590881,24.9910147 L93.5970034,11.7652059 L87.4715797,11.7239559 L95.0726136,34.5215294 L91.5798,44.7952059 L98.4277153,43.2197647 C101.608088,33.5121176 108.743325,11.7197647 108.743325,11.7197647 L102.500461,11.6979265 Z" id="Fill-19"></path>
                        </g>
                    </g>
                </g>
            </g>
        </g>
    </g>
</svg>
